X:111
T:Sonata for Flute in B minor - Siciliana
C:Bach, J.S.
M:6/8
L:1/8
Q:3/8=60
K:Bmin
|:F#2|B4 AF#|G4 EF#|G2 AB cd|e4 d2|
B4 AF#|G4 EF#|G2 F#G AB|B3 B:|

